X: 1635
T: Jolly Blacksmith Polka
B: australian traditional tunes wiki
M:2/4
L:1/16
R: Polka
Q: 1/4=100
K:D
V:1 
AA|:"D"B2F2 A2AA|B2F2 A2AA|B2F2 A2B2|"G"G6BB|
"A7"e2d2 c2B2|AAg2 f2e2|1"G"G2A2 "A7"c2B2|"D"A6AA:|2"D"d2c2 "A7"f2e2|"D"d4F2A2||
"D"d3c d2e2|f2e2 d3c|d2c2 "A7"d2e2|"D"f4d2e2|
f3e f2g2|"G"b2a2 "A7"e2ff|"A7"aAgA f2e2|1"D"d4F2A2:|2"D"d4d2||
% abcbook-tune_id 6342d53a9f83372a49bebf3b


% abcbook-boost 0
% abcbook-tablature 
% abcbook-transpose 
% abcbook-lastupdated 1665324375231
% abcbook-soundfonts 
% abcbook-repeats 1
% NFF Book 2007

